img/illo.svg

<svg fill="none" height="200" viewBox="0 0 240 200" width="240" xmlns="http://www.w3.org/2000/svg"><rect fill="#56ccf2" height="200" rx="12" width="240"/><path d="m109.194 26.1836h65.1079v82.207h-65.1079z" fill="#fff"/><path d="m115.772 32.7607h65.1079v82.207h-65.1079z" fill="#000"/><g stroke="#fff" stroke-linecap="round" stroke-linejoin="round" stroke-width="1.70639"><path d="m108.534 66.8281h-71.6271c-19.2819 0-34.91298 15.6311-34.91298 34.9129 0 19.282 15.63108 34.913 34.91298 34.913h18.686"/><path d="m100.308 57.751 9.113 9.1133-9.113 9.1133"/><path d="m181.711 66.7292c19.282 0 34.913 15.6311 34.913 34.9128 0 19.282-15.631 34.913-34.913 34.913h-71.628"/><path d="m118.31 145.632-9.113-9.113 9.113-9.113"/></g><path d="m42.3447 84.7153h65.1079v82.207h-65.1079z" fill="#fff500" transform="matrix(.96592583 .25881905 -.25881905 .96592583 23.368794 -8.073011)"/><path d="m63.3524 109.706v45.912" stroke="#f66" stroke-width=".853196"/><path d="m84.1992 132.529h-41.4323" stroke="#f66" stroke-width=".853196"/><path d="m0-.426598h25.7552" stroke="#f66" stroke-width=".853196" transform="matrix(-.707107 -.707106 .707107 -.707106 73.3003 141.355)"/><path d="m72.4828 123.445-18.2117 18.212" stroke="#f66" stroke-width=".853196"/><path d="m147.821 47.8633c.191-.9009 1.477-.9009 1.669 0l2.493 11.7225c.137.6423.917.896 1.405.4566l8.908-8.018c.685-.6163 1.725.1395 1.35.981l-4.873 10.9493c-.267.5999.216 1.264.869 1.1954l11.919-1.251c.916-.0961 1.313 1.1267.516 1.5874l-10.378 5.9938c-.569.3284-.569 1.1493 0 1.4777l10.378 5.9938c.797.4607.4 1.6835-.516 1.5874l-11.919-1.251c-.653-.0686-1.136.5955-.869 1.1954l4.873 10.9493c.375.8415-.665 1.5973-1.35.9811l-8.908-8.0181c-.488-.4394-1.268-.1857-1.405.4566l-2.493 11.7225c-.192.9009-1.478.9009-1.669 0l-2.494-11.7225c-.136-.6423-.917-.896-1.405-.4566l-8.908 8.0181c-.684.6162-1.724-.1396-1.35-.9811l4.873-10.9493c.267-.5999-.215-1.264-.868-1.1954l-11.92 1.251c-.916.0961-1.313-1.1267-.515-1.5874l10.378-5.9938c.568-.3284.568-1.1493 0-1.4777l-10.378-5.9938c-.798-.4607-.401-1.6835.515-1.5874l11.92 1.251c.653.0686 1.135-.5955.868-1.1954l-4.873-10.9493c-.374-.8415.666-1.5973 1.35-.9811l8.908 8.0181c.488.4394 1.269.1857 1.405-.4566z" fill="#fff500"/><circle cx="109.195" cy="66.959" fill="#fff500" r="5.26125"/><path d="m171.015 136.669s-8.539 8.55-19.072 8.55-19.072-8.55-19.072-8.55 8.539-8.549 19.072-8.549 19.072 8.549 19.072 8.549z" fill="#fff" stroke="#fff" stroke-linecap="round" stroke-linejoin="round" stroke-width="1.70639"/><circle cx="151.943" cy="136.669" fill="#00ba8d" r="7.23422"/><circle cx="151.943" cy="136.669" fill="#000" r="3.94594"/></svg>

<svg width="240" height="200" viewBox="0 0 240 200" fill="none" xmlns="http://www.w3.org/2000/svg">
<rect width="240" height="200" rx="12" fill="#56CCF2"/>
<rect x="109.194" y="26.1836" width="65.1079" height="82.207" fill="white"/>
<rect x="115.772" y="32.7607" width="65.1079" height="82.207" fill="black"/>
<path d="M108.534 66.8281L36.9069 66.8281C17.625 66.8281 1.99392 82.4592 1.99392 101.741C1.99392 121.023 17.625 136.654 36.9069 136.654L55.5929 136.654" stroke="white" stroke-width="1.70639" stroke-linecap="round" stroke-linejoin="round"/>
<path d="M100.308 57.751L109.421 66.8643L100.308 75.9776" stroke="white" stroke-width="1.70639" stroke-linecap="round" stroke-linejoin="round"/>
<path d="M181.711 66.7292C200.993 66.7292 216.624 82.3603 216.624 101.642C216.624 120.924 200.993 136.555 181.711 136.555L110.083 136.555" stroke="white" stroke-width="1.70639" stroke-linecap="round" stroke-linejoin="round"/>
<path d="M118.31 145.632L109.197 136.519L118.31 127.406" stroke="white" stroke-width="1.70639" stroke-linecap="round" stroke-linejoin="round"/>
<rect x="42.3447" y="84.7153" width="65.1079" height="82.207" transform="rotate(15 42.3447 84.7153)" fill="#FFF500"/>
<line x1="63.3524" y1="109.706" x2="63.3524" y2="155.618" stroke="#FF6666" stroke-width="0.853196"/>
<line x1="84.1992" y1="132.529" x2="42.7669" y2="132.529" stroke="#FF6666" stroke-width="0.853196"/>
<line y1="-0.426598" x2="25.7552" y2="-0.426598" transform="matrix(-0.707107 -0.707106 0.707107 -0.707106 73.3003 141.355)" stroke="#FF6666" stroke-width="0.853196"/>
<line x1="72.4828" y1="123.445" x2="54.2711" y2="141.657" stroke="#FF6666" stroke-width="0.853196"/>
<path d="M147.821 47.8633C148.012 46.9624 149.298 46.9624 149.49 47.8633L151.983 59.5858C152.12 60.2281 152.9 60.4818 153.388 60.0424L162.296 52.0244C162.981 51.4081 164.021 52.1639 163.646 53.0054L158.773 63.9547C158.506 64.5546 158.989 65.2187 159.642 65.1501L171.561 63.8991C172.477 63.803 172.874 65.0258 172.077 65.4865L161.699 71.4803C161.13 71.8087 161.13 72.6296 161.699 72.958L172.077 78.9518C172.874 79.4125 172.477 80.6353 171.561 80.5392L159.642 79.2882C158.989 79.2196 158.506 79.8837 158.773 80.4836L163.646 91.4329C164.021 92.2744 162.981 93.0302 162.296 92.414L153.388 84.3959C152.9 83.9565 152.12 84.2102 151.983 84.8525L149.49 96.575C149.298 97.4759 148.012 97.4759 147.821 96.575L145.327 84.8525C145.191 84.2102 144.41 83.9565 143.922 84.3959L135.014 92.414C134.33 93.0302 133.29 92.2744 133.664 91.4329L138.537 80.4836C138.804 79.8837 138.322 79.2196 137.669 79.2882L125.749 80.5392C124.833 80.6353 124.436 79.4125 125.234 78.9518L135.612 72.958C136.18 72.6296 136.18 71.8087 135.612 71.4803L125.234 65.4865C124.436 65.0258 124.833 63.803 125.749 63.8991L137.669 65.1501C138.322 65.2187 138.804 64.5546 138.537 63.9547L133.664 53.0054C133.29 52.1639 134.33 51.4081 135.014 52.0243L143.922 60.0424C144.41 60.4818 145.191 60.2281 145.327 59.5858L147.821 47.8633Z" fill="#FFF500"/>
<circle cx="109.195" cy="66.959" r="5.26125" fill="#FFF500"/>
<path d="M171.015 136.669C171.015 136.669 162.476 145.219 151.943 145.219C141.41 145.219 132.871 136.669 132.871 136.669C132.871 136.669 141.41 128.12 151.943 128.12C162.476 128.12 171.015 136.669 171.015 136.669Z" fill="white" stroke="white" stroke-width="1.70639" stroke-linecap="round" stroke-linejoin="round"/>
<circle cx="151.943" cy="136.669" r="7.23422" fill="#00BA8D"/>
<circle cx="151.943" cy="136.669" r="3.94594" fill="black"/>
</svg>
